!!!COM: Bach, Johann Sebastian
!!!CDT: 1685/3//-1750/7/28/
!!!OTL@@DE: Ach bleib bei uns, Herr Jesu Christ
!!!AGN: 4-Part Chorale
!!!SCT: BH 177
!!!SCT: BWV 253
**harm	**root	**kern	**kern	**kern	**kern
!	!	!bass	!tenor	!alto	!soprno
*	*Iorgan	*Iorgan	*Iorgan	*Iorgan	*Iorgan
*M4/4	*M4/4	*M4/4	*M4/4	*M4/4	*M4/4
*met(c)	*met(c)	*met(c)	*met(c)	*met(c)	*met(c)
*MM60	*MM60	*MM60	*MM60	*MM60	*MM60
*k[f#c#g#]	*k[f#c#g#]	*k[f#c#g#]	*k[f#c#g#]	*k[f#c#g#]	*k[f#c#g#]
*A:	*A:	*A:	*A:	*A:	*A:
I	4AA	4AA	4e	4a	4cc#
=1	=1	=1	=1	=1	=1
I	4AA	4A	4e	4a	8cc#
.	.	.	.	.	8dd
Vb	4EE	4G#	4e	4b	4ee
I	4AA	4A	4e	4a	4cc#
IVb	4DD	4F#	8e	4a	4a
.	.	.	8d	.	.
=2	=2	=2	=2	=2	=2
IV/IV	4GG	4Gn	4d	8gn	4b
.	.	.	.	8f#	.
V/IV	4AA	4A	4A	4e	4cc#
I/IV;	4DD;	4D;	4A;	4f#;	4dd;
I	4AA	4AA	4A	4e	4cc#
=3	=3	=3	=3	=3	=3
V	4EE	4E	4G#	8e	4b
.	.	.	.	8d	.
vi	4FF#	8F#	4A	4c#	4a
.	.	8E	.	.	.
IV	4DD	8D	2d	2f#	4.a
.	.	8E	.	.	.
IVb	4DD	8F#	.	.	.
.	.	8G#	.	.	8b
=4	=4	=4	=4	=4	=4
I	4AA	4A	8c#	4e	4cc#
.	.	.	8B	.	.
Ib	4AA	8C#	4A	4e	4cc#
.	.	8D	.	.	.
V	4EE	4E	4A	4.e	8b
.	.	.	.	.	8a
V	4EE	4E	4G#	.	4b
.	.	.	.	8d	.
!!linebreak: 2
=5	=5	=5	=5	=5	=5
I;	2.AA;	2.AA;	2.E;	2.c#;	2.a;
I	4AA	4AA	4e	4a	4cc#
=6	=6	=6	=6	=6	=6
V	4EE	4E	8e	4g#	4b
.	.	.	8d	.	.
Vb/vi	4CC#	4E#	4c#	4g#	4cc#
vi	4FF#	4F#	4c#	8f#	4a
.	.	.	.	8e	.
V/V	4BB	8B	4B	4d#	4f#
.	.	8A	.	.	.
=7	=7	=7	=7	=7	=7
Vb	4EE	4G#	4B	4.e	4g#
viib/V	4DD#	4F#	4A	.	4a
.	.	.	.	8d#	.
V;	4EE;	4E;	4G#;	4e;	4b;
V/vi	4CC#	4C#	4G#	4e#	4cc#
=8	=8	=8	=8	=8	=8
vi	4FF#	8F#	4A	4c#	4a
.	.	8E	.	.	.
IVb	4DD	8F#	4d	4f#	4a
.	.	8G#	.	.	.
I	4AA	8A	8c#	4en	4.a
.	.	8B	8d	.	.
vib	8FF#	8A	8c#	8f#	.
vii	8GG#	8G#	8B	8g#	8b
=9	=9	=9	=9	=9	=9
vi	4FF#	4F#	4A	4a	4cc#
Ib	4AA	8C#	4A	4e	4cc#
.	.	8D	.	.	.
V	4EE	4E	4A	4.e	8b
.	.	.	.	.	8a
V	4EE	4E	4G#	.	4b
.	.	.	.	8d	.
=10	=10	=10	=10	=10	=10
I;	2.AA;	2.AA;	2.E;	2.c#;	2.a;
====	====	====	====	====	====
*-	*-	*-	*-	*-	*-
!!chor2scor: -l 2 -s 0.6 -o %b.pmx
!!!YEC: Copyright 1994, David Huron
!!!YEC: Changes/Additions 2001 by Craig Stuart Sapp
!!!YEN: United States of America
!!!SMA: 371 Bach Chorales, edited by Ludwig Erk, C.F. Peters
!!!PDT: 1850, 1865
!!!ONB: Harmony and Root analysis done manually
